symbols/web/19mp/materialsymbolssharp/19mp_wght300_24px.svg

<svg xmlns="http://www.w3.org/2000/svg" height="24" width="24"><path d="M8.65 11.35H9.85V5.65H7.15V6.85H8.65ZM12.15 11.35H16.35V5.65H12.15V8.95H15.15V10.15H12.15ZM13.35 8.05V6.55H15.15V8.05ZM3.5 20.5V3.5H20.5V20.5ZM5 19H19V5H5ZM6.15 18.35H7.35V13.85H8.65V16.85H9.85V13.85H11.15V18.35H12.35V12.65H6.15ZM13.65 18.35H14.85V16.85H17.85V12.65H13.65ZM14.85 13.85H16.65V15.65H14.85ZM5 5V19Z"/></svg>

<svg xmlns="http://www.w3.org/2000/svg" height="24" width="24"><path d="M8.65 11.35h1.2v-5.7h-2.7v1.2h1.5Zm3.5 0h4.2v-5.7h-4.2v3.3h3v1.2h-3Zm1.2-3.3v-1.5h1.8v1.5ZM3.5 20.5v-17h17v17ZM5 19h14V5H5Zm1.15-.65h1.2v-4.5h1.3v3h1.2v-3h1.3v4.5h1.2v-5.7h-6.2Zm7.5 0h1.2v-1.5h3v-4.2h-4.2Zm1.2-4.5h1.8v1.8h-1.8ZM5 5v14Z"/></svg>
